!!!COM: Mozart
!!!OTL: Zwolf Variationen in C uber ein Menuett von Johann Christian Fischer
!!!Variation: Theme c
**function	**harm	**kern	**kern
*	*	*clefF4	*clefG2
*	*	*k[]	*k[]
*M3/4	*M3/4	*M3/4	*M3/4
*C:	*C:	*C:	*C:
=9	=9	=9	=9
2.D	G:maj	8GGL	(2dd
.	.	8GJ	.
.	.	8GGL	.
.	.	8GJ	.
.	.	8GGL	16ccLL
.	.	.	16b
.	.	8GJ	16a
.	.	.	16gJJ)
=10	=10	=10	=10
2.D	C:maj/5	8GGL	4cc 4ee
.	.	8GJ	.
.	.	8GGL	4g 4cc
.	.	8GJ	.
.	.	8GGL	(16eeLL
.	.	.	16cc)
.	.	8GJ	(16ee
.	.	.	16ccJJ)
=11	=11	=11	=11
2.D	G:7	8GGL	4dd 4ff
.	.	8GJ	.
.	.	8GGL	4b 4dd
.	.	8GJ	.
.	.	8GGL	(16ffLL
.	.	.	16dd)
.	.	8GJ	(16ff
.	.	.	16ddJJ)
=12	=12	=12	=12
2.T	C:maj	4CC. 4C.	(4ee 4gg
.	.	.	16ccLL) 16ee
.	.	.	(16gg
.	.	8r	16aa
.	.	.	16ggJJ
.	.	4r	16cccLL
.	.	.	16gg
.	.	.	16aa
.	.	.	16ggJJ)
=13	=13	=13	=13
2.T	C:maj	4CC. 4C.	(4ee 4gg
.	.	.	16ccLL) 16ee
.	.	.	(16gg
.	.	8r	16aa
.	.	.	16ggJJ
.	.	4r	16cccLL
.	.	.	16gg
.	.	.	16aa
.	.	.	16ggJJ)
=14	=14	=14	=14
4T	C:maj/3	8e	(16ggLL
.	.	.	16ee
.	.	8r	16aa
.	.	.	16ggJJ
4T	G:7/3	8B	16ffLL
.	.	.	16dd
.	.	8r	16gg
.	.	.	16ffJJ
4T	C:maj	8c	16eeLL
.	.	.	16cc
.	.	8r	16ff
.	.	.	16eeJJ)
=15	=15	=15	=15
2T	C:maj/5	(2G	(16eeLL
.	.	.	16dd)
.	.	.	16g'
.	.	.	16a'JJ
.	.	.	16b'LL
.	.	.	16cc'
.	.	.	16dd'
.	.	.	16ee'JJ
4T	G:7/b7	4F	16ff'LL
.	.	.	16gg'
.	.	.	16aa'
.	.	.	16bb'JJ
=16	=16	=16	=16
4T	C:maj/3	8E)	16ccc'LL
.	.	.	16gg'
.	.	8r	(16ee
.	.	.	16ggJJ)
4T	B:hdim7	8BB	(16ffLL
.	.	.	16aa)
.	.	8r	(16dd
.	.	.	16ffJJ)
4T	C:maj	8C	(16eeLL
.	.	.	16gg)
.	.	8r	(16cc
.	.	.	16eeJJ)
=17	=17	=17	=17
2.D	G:maj	4G	(8eeL
.	.	.	8ddJ)
.	.	4GG	(8ccL
.	.	.	8bJ)
.	.	4r	(8aL
.	.	.	8gJ)
*-	*-	*-	*-
!!!EMD: Edited in humdrumR 0.7.0.3 on 2024-01-19
